Origami/24x24/apps/scout-app.svg

<svg width="24" height="24" version="1.1" viewBox="0 0 24 24" xmlns="http://www.w3.org/2000/svg">
 <path d="m12 3.9992557c-0.511985 0.00282-1.003555 0.054877-1.506836 0.1552735-3.7107945 0.7214154-6.7273032 3.1028684-5.8359375 6.9814458 0.4384165 1.90826 1.5047125 3.133688 1.9140625 4.351562 1.085141 3.226976 0.969144 4.884342 3.049805 5.600586 0.836898 0.286068 1.512945 0.42331 2.378906 0.411133 0.865962 0.01218 1.542009-0.125065 2.378906-0.411133 2.080661-0.716244 1.964664-2.37361 3.049805-5.600586 0.40935-1.217874 1.475646-2.443302 1.914063-4.351562 0.891365-3.8785774-2.125143-6.2600304-5.835938-6.9814458-0.50328-0.100396-0.99485-0.1524485-1.506836-0.1552735z" style="opacity:.2"/>
 <path d="m12 3.0002255c-0.511985 0.00282-1.003555 0.054878-1.506836 0.1552735-3.7107945 0.7214153-6.3275297 3.1028685-5.436164 6.981445 0.4384165 1.90826 1.104939 3.633464 1.514289 4.851337 1.085141 3.226976 0.969144 4.884342 3.049805 5.600586 0.836898 0.286068 1.512945 0.423311 2.378906 0.411133 0.865962 0.01217 1.542009-0.125065 2.378906-0.411133 2.080661-0.716244 1.964664-2.37361 3.049805-5.600586 0.40935-1.217873 0.825873-2.943077 1.264289-4.851337 0.891366-3.8785765-1.475369-6.2600297-5.186164-6.981445-0.50328-0.100396-0.99485-0.1524485-1.506836-0.1552735z" style="fill:#d7cec7"/>
 <path d="m 13.487305,3.1525693 0.01953,0.00293 c 3.478871,0.6763265 6.347576,2.8113602 5.958009,6.2714842 -0.02671,0.2309729 -0.06674,0.4662899 -0.12207,0.7070305 -0.0041,0.01803 -0.0095,0.03384 -0.01367,0.05176 -0.439745,1.854981 -1.465151,3.563895 -1.881836,4.755634 C 14,15 13,10.78204 13,7.2619445 12.9946,5.9163935 12.899564,4.3752775 13.487305,3.1525693 Z" style="fill:#de8c4a"/>
 <path d="m 10.512696,3.1525693 -0.01953,0.00293 C 7.014294,3.8318258 4.1455894,5.9668595 4.5351562,9.4269835 c 0.026715,0.2309729 0.066744,0.4662899 0.1220703,0.7070305 0.00414,0.01803 0.00946,0.03384 0.013672,0.05176 0.439745,1.854981 1.4651505,3.563895 1.881836,4.755634 C 10,15 11,10.78204 11,7.2619445 11.0054,5.9163935 11.100436,4.3752775 10.512696,3.1525693 Z" style="fill:#de8c4a"/>
 <path d="m11.632813 16c-0.349612 0-0.632813 0.338242-0.632813 0.75586 0 0.421917 0.651376 1.24414 1 1.24414s1-0.822223 1-1.24414c0-0.417618-0.283201-0.75586-0.632812-0.75586h-0.367188-0.367187z" style="fill:#3f3f3f"/>
 <circle cx="8.5" cy="11" r="1.5" style="opacity:.2"/>
 <circle cx="8.5" cy="10.5" r="1.5" style="fill:#3f3f3f"/>
 <circle cx="15.5" cy="11" r="1.5" style="opacity:.2"/>
 <circle cx="8" cy="10.5" r=".5" style="fill:#ffffff"/>
 <path d="m13 20c0 0.552285-0.447715 1-1 1-0.552284 0-1-0.447715-1-1 0-0.119005 0.02079-0.233155 0.05893-0.339017 0.13887-0.385425 0.487361-0.170687 0.92064-0.170687 0.432822 0 0.821849-0.21532 0.961058 0.169466 0.038424 0.106205 0.059372 0.220775 0.059372 0.340238z" style="fill:#d86f6f"/>
 <path d="m9.25 18.75s0.919206 0.845593 1.5 0.999831c0.360193 0.09565 1.25-0.5 1.25-0.5s0.889807 0.595654 1.25 0.5c0.580794-0.154238 1.5-0.999831 1.5-0.999831" style="fill:none;stroke-linecap:round;stroke-linejoin:round;stroke-width:.5;stroke:#79431b"/>
 <path d="m12 3c-0.50464 0.0027795-0.990592 0.0547558-1.486328 0.1523438l-0.013672 0.0019531c-0.002652 5.264e-4 -0.005161 0.001424-0.007812 0.0019531-0.01977 0.0038431-0.036935 0.0116877-0.056641 0.015625-3.3236859 0.6636269-6.0681221 2.6641945-5.9218751 5.8828125 0.1454423-2.9259897 2.7737666-4.7542425 5.9218751-5.3828125 0.01971-0.003937 0.036871-0.011785 0.056641-0.015625 0.002599-5.3e-4 0.005112-0.0014267 0.007812-0.0019531l0.013672-0.0019531c0.495736-0.0975878 0.981688-0.1495638 1.486328-0.1523438 0.511336 0.0028214 1.003305 0.0560979 1.505859 0.15625h0.001953c3.175269 0.6178231 5.834599 2.4553919 5.978516 5.4023438 0.149753-3.240129-2.627314-5.2502889-5.978516-5.9023438h-0.001953c-0.502611-0.1001461-0.994523-0.1534286-1.505859-0.15625z" style="fill:#ffffff;opacity:.2"/>
 <path d="m8.9945806 5.3770604s1.8767694-2.0042627 0.502016-2.5747106c-1.5399623-0.6390005-5.6550617-0.2353749-7.0903682 0.9299685-0.5478809 0.4328986-0.4204403 0.8084108-0.3065753 1.3213211 0.394035 1.7743005 1.4156431 6.2998116 1.6160431 6.4426646 0.2494529 0.17782 5.2788844-6.1192436 5.2788844-6.1192436z" style="opacity:.2"/>
 <path d="m8.9945806 4.8770616s1.8767694-2.0042627 0.502016-2.5747106c-1.5399623-0.6390005-5.6550617-0.2353749-7.0903682 0.9299685-0.5478809 0.4328986-0.4204403 0.8084108-0.3065753 1.3213211 0.394035 1.7743005 1.4156431 6.2998104 1.6160431 6.4426634 0.2494529 0.17782 5.2788844-6.1192424 5.2788844-6.1192424z" style="fill:#86522b"/>
 <path d="m15.005419 5.3770604s-1.876769-2.0042627-0.502016-2.5747106c1.539963-0.6390005 5.655062-0.2353749 7.090369 0.9299685 0.547881 0.4328986 0.42044 0.8084108 0.306575 1.3213211-0.394034 1.7743005-1.415643 6.2998116-1.616043 6.4426646-0.249453 0.17782-5.278885-6.1192436-5.278885-6.1192436z" style="opacity:.2"/>
 <path d="m15.005419 4.8770616s-1.876769-2.0042627-0.502016-2.5747106c1.539963-0.6390005 5.655062-0.2353749 7.090369 0.9299685 0.547881 0.4328986 0.42044 0.8084108 0.306575 1.3213211-0.394034 1.7743005-1.415643 6.2998104-1.616043 6.4426634-0.249453 0.17782-5.278885-6.1192424-5.278885-6.1192424z" style="fill:#86522b"/>
 <circle cx="15.5" cy="10.5" r="1.5" style="fill:#3f3f3f"/>
 <circle cx="15" cy="10.5" r=".5" style="fill:#ffffff"/>
 <path d="m6.9550781 2.0078125c-1.7077128 0.0646665-3.6517615 0.4962697-4.5488281 1.2246094-0.4376257 0.3457824-0.4402185 0.6574747-0.3671875 1.0292969 0.0430856-0.1756259 0.1375473-0.3478507 0.3671875-0.5292969 1.4353065-1.1653434 5.5498814-1.568688 7.0898438-0.9296875 0.2547324 0.1057001 0.3968527 0.2610756 0.4609374 0.4433594 0.0816898-0.3891843 0.0053034-0.7498948-0.4609374-0.9433594-0.5774859-0.2396252-1.516388-0.3337218-2.5410157-0.2949219z" style="fill:#ffffff;opacity:.1"/>
 <path d="m17.044922 2.0078125c-1.024628-0.0387999-1.96353 0.0552967-2.541016 0.2949219-0.46624 0.1934646-0.542627 0.5541751-0.460937 0.9433594 0.064084-0.1822838 0.206205-0.3376593 0.460937-0.4433594 1.539963-0.6390005 5.654537-0.2356559 7.089844 0.9296875 0.22964 0.1814462 0.324102 0.353671 0.367188 0.5292969 0.073031-0.3718222 0.070438-0.6835145-0.367188-1.0292969-0.897067-0.7283396-2.841115-1.1599429-4.548828-1.2246094z" style="fill:#ffffff;opacity:.1"/>
</svg>

<svg xmlns="http://www.w3.org/2000/svg" width="24" height="24" version="1.1" viewBox="0 0 24 24">
 <path style="opacity:0.2" d="m 12,3.9992557 c -0.511985,0.00282 -1.003555,0.054877 -1.506836,0.1552735 -3.7107945,0.7214154 -6.7273032,3.1028684 -5.8359375,6.9814458 0.4384165,1.90826 1.5047125,3.133688 1.9140625,4.351562 1.085141,3.226976 0.969144,4.884342 3.049805,5.600586 0.836898,0.286068 1.512945,0.42331 2.378906,0.411133 0.865962,0.01218 1.542009,-0.125065 2.378906,-0.411133 2.080661,-0.716244 1.964664,-2.37361 3.049805,-5.600586 0.40935,-1.217874 1.475646,-2.443302 1.914063,-4.351562 C 20.234139,7.2573976 17.217631,4.8759446 13.506836,4.1545292 13.003556,4.0541332 12.511986,4.0020807 12,3.9992557 Z"/>
 <path style="fill:#d7cec7" d="M 12,3.0002255 C 11.488015,3.0030455 10.996445,3.0551035 10.493164,3.155499 6.7823695,3.8769143 4.1656343,6.2583675 5.057,10.136944 c 0.4384165,1.90826 1.104939,3.633464 1.514289,4.851337 1.085141,3.226976 0.969144,4.884342 3.049805,5.600586 C 10.457992,20.874935 11.134039,21.012178 12,21 c 0.865962,0.01217 1.542009,-0.125065 2.378906,-0.411133 2.080661,-0.716244 1.964664,-2.37361 3.049805,-5.600586 0.40935,-1.217873 0.825873,-2.943077 1.264289,-4.851337 C 19.584366,6.2583675 17.217631,3.8769143 13.506836,3.155499 13.003556,3.055103 12.511986,3.0030505 12,3.0002255 Z"/>
 <path style="fill:#de8c4a" d="m 13.487305,3.1525693 0.01953,0.00293 c 3.478871,0.6763265 6.347576,2.8113602 5.958009,6.2714842 -0.02671,0.2309729 -0.06674,0.4662899 -0.12207,0.7070305 -0.0041,0.01803 -0.0095,0.03384 -0.01367,0.05176 -0.439745,1.854981 -1.465151,3.563895 -1.881836,4.755634 C 14,15 13,10.78204 13,7.2619445 12.9946,5.9163935 12.899564,4.3752775 13.487305,3.1525693 Z"/>
 <path style="fill:#de8c4a" d="m 10.512696,3.1525693 -0.01953,0.00293 C 7.014294,3.8318258 4.1455894,5.9668595 4.5351562,9.4269835 c 0.026715,0.2309729 0.066744,0.4662899 0.1220703,0.7070305 0.00414,0.01803 0.00946,0.03384 0.013672,0.05176 0.439745,1.854981 1.4651505,3.563895 1.881836,4.755634 C 10,15 11,10.78204 11,7.2619445 11.0054,5.9163935 11.100436,4.3752775 10.512696,3.1525693 Z"/>
 <path style="fill:#3f3f3f" d="M 11.632813,16 C 11.283201,16 11,16.338242 11,16.75586 11,17.177777 11.651376,18 12,18 12.348624,18 13,17.177777 13,16.75586 13,16.338242 12.716799,16 12.367188,16 L 12,16 11.632813,16 Z"/>
 <circle style="opacity:0.2" cx="8.5" cy="11" r="1.5"/>
 <circle style="fill:#3f3f3f" cx="8.5" cy="10.5" r="1.5"/>
 <circle style="opacity:0.2" cx="15.5" cy="11" r="1.5"/>
 <circle style="fill:#ffffff" cx="8" cy="10.5" r=".5"/>
 <path style="fill:#d86f6f" d="m 13,20 c 0,0.552285 -0.447715,1 -1,1 -0.552284,0 -1,-0.447715 -1,-1 0,-0.119005 0.02079,-0.233155 0.05893,-0.339017 0.13887,-0.385425 0.487361,-0.170687 0.92064,-0.170687 0.432822,0 0.821849,-0.21532 0.961058,0.169466 C 12.979052,19.765967 13,19.880537 13,20 Z"/>
 <path style="fill:none;stroke:#79431b;stroke-width:0.5;stroke-linecap:round;stroke-linejoin:round" d="m 9.25,18.75 c 0,0 0.919206,0.845593 1.5,0.999831 0.360193,0.09565 1.25,-0.5 1.25,-0.5 0,0 0.889807,0.595654 1.25,0.5 C 13.830794,19.595593 14.75,18.75 14.75,18.75"/>
 <path style="fill:#ffffff;opacity:0.2" d="M 12 3 C 11.49536 3.0027795 11.009408 3.0547558 10.513672 3.1523438 L 10.5 3.1542969 C 10.497348 3.1548233 10.494839 3.1557209 10.492188 3.15625 C 10.472418 3.1600931 10.455253 3.1679377 10.435547 3.171875 C 7.1118611 3.8355019 4.3674249 5.8360695 4.5136719 9.0546875 C 4.6591142 6.1286978 7.2874385 4.300445 10.435547 3.671875 C 10.455257 3.667938 10.472418 3.66009 10.492188 3.65625 C 10.494787 3.65572 10.4973 3.6548233 10.5 3.6542969 L 10.513672 3.6523438 C 11.009408 3.554756 11.49536 3.50278 12 3.5 C 12.511336 3.5028214 13.003305 3.5560979 13.505859 3.65625 L 13.507812 3.65625 C 16.683081 4.2740731 19.342411 6.1116419 19.486328 9.0585938 C 19.636081 5.8184648 16.859014 3.8083049 13.507812 3.15625 L 13.505859 3.15625 C 13.003248 3.0561039 12.511336 3.0028214 12 3 z"/>
 <path style="opacity:0.2" d="m 8.9945806,5.3770604 c 0,0 1.8767694,-2.0042627 0.502016,-2.5747106 C 7.9566343,2.1633493 3.8415349,2.5669749 2.4062284,3.7323183 1.8583475,4.1652169 1.9857881,4.5407291 2.0996531,5.0536394 2.4936881,6.8279399 3.5152962,11.353451 3.7156962,11.496304 3.9651491,11.674124 8.9945806,5.3770604 8.9945806,5.3770604 Z"/>
 <path style="fill:#86522b" d="m 8.9945806,4.8770616 c 0,0 1.8767694,-2.0042627 0.502016,-2.5747106 C 7.9566343,1.6633505 3.8415349,2.0669761 2.4062284,3.2323195 1.8583475,3.6652181 1.9857881,4.0407303 2.0996531,4.5536406 2.4936881,6.3279411 3.5152962,10.853451 3.7156962,10.996304 3.9651491,11.174124 8.9945806,4.8770616 8.9945806,4.8770616 Z"/>
 <path style="opacity:0.2" d="m 15.005419,5.3770604 c 0,0 -1.876769,-2.0042627 -0.502016,-2.5747106 1.539963,-0.6390005 5.655062,-0.2353749 7.090369,0.9299685 0.547881,0.4328986 0.42044,0.8084108 0.306575,1.3213211 -0.394034,1.7743005 -1.415643,6.2998116 -1.616043,6.4426646 -0.249453,0.17782 -5.278885,-6.1192436 -5.278885,-6.1192436 z"/>
 <path style="fill:#86522b" d="m 15.005419,4.8770616 c 0,0 -1.876769,-2.0042627 -0.502016,-2.5747106 1.539963,-0.6390005 5.655062,-0.2353749 7.090369,0.9299685 0.547881,0.4328986 0.42044,0.8084108 0.306575,1.3213211 -0.394034,1.7743005 -1.415643,6.2998104 -1.616043,6.4426634 -0.249453,0.17782 -5.278885,-6.1192424 -5.278885,-6.1192424 z"/>
 <circle style="fill:#3f3f3f" cx="15.5" cy="10.5" r="1.5"/>
 <circle style="fill:#ffffff" cx="15" cy="10.5" r=".5"/>
 <path style="fill:#ffffff;opacity:0.1" d="M 6.9550781 2.0078125 C 5.2473653 2.072479 3.3033166 2.5040822 2.40625 3.2324219 C 1.9686243 3.5782043 1.9660315 3.8898966 2.0390625 4.2617188 C 2.0821481 4.0860929 2.1766098 3.9138681 2.40625 3.7324219 C 3.8415565 2.5670785 7.9561314 2.1637339 9.4960938 2.8027344 C 9.7508262 2.9084345 9.8929465 3.06381 9.9570312 3.2460938 C 10.038721 2.8569095 9.9623346 2.496199 9.4960938 2.3027344 C 8.9186079 2.0631092 7.9797058 1.9690126 6.9550781 2.0078125 z"/>
 <path style="fill:#ffffff;opacity:0.1" d="M 17.044922 2.0078125 C 16.020294 1.9690126 15.081392 2.0631092 14.503906 2.3027344 C 14.037666 2.496199 13.961279 2.8569095 14.042969 3.2460938 C 14.107053 3.06381 14.249174 2.9084345 14.503906 2.8027344 C 16.043869 2.1637339 20.158443 2.5670785 21.59375 3.7324219 C 21.82339 3.9138681 21.917852 4.0860929 21.960938 4.2617188 C 22.033969 3.8898966 22.031376 3.5782043 21.59375 3.2324219 C 20.696683 2.5040823 18.752635 2.072479 17.044922 2.0078125 z"/>
</svg>
